X:14
T:The Silver Spear
M:4/4
L:1/8
R:reel
K:D
|:"D"FAA2 BAFA|dfed "G"Bcd2|"D"FAA2 BAFA|dfed "A"B2A2|
"D"FAA2 BAFA|dfed "G"Bcdf|g3e "D"f3e|"G"dfed "A"B2A2:|
|:"D"faaf bfaf|"G"gfed Bcde|"D"faaf "G"bfaf|"A"gfed B2A2|
"D"faaf bfaf|"G"gfed "(A)"Bcdf|"G"g3e "D"f3e|"G"dfed "A"B2A2:|"D"d4 z4||
